app/img/auth-bg-desktop--registration.svg

<?xml version="1.0" encoding="UTF-8"?>
<svg width="1440" height="768" viewBox="0 0 1440 768" version="1.1" xmlns="http://www.w3.org/2000/svg" xmlns:xlink="http://www.w3.org/1999/xlink">
    <!-- Generator: Sketch 49.1 (51147) - http://www.bohemiancoding.com/sketch -->
    <defs>
        <rect id="path-1" x="0" y="8" width="137" height="40" rx="20"></rect>
        <filter x="-1.5%" y="-2.5%" width="102.9%" height="110.0%" filterUnits="objectBoundingBox" id="filter-2">
            <feOffset dx="0" dy="1" in="SourceAlpha" result="shadowOffsetOuter1"></feOffset>
            <feGaussianBlur stdDeviation="0.5" in="shadowOffsetOuter1" result="shadowBlurOuter1"></feGaussianBlur>
            <feColorMatrix values="0 0 0 0 0.855096726   0 0 0 0 0.226643735   0 0 0 0 0.158964182  0 0 0 1 0" type="matrix" in="shadowBlurOuter1"></feColorMatrix>
        </filter>
        <linearGradient x1="0.386639031%" y1="50.386639%" x2="99.613361%" y2="50.386639%" id="linearGradient-3">
            <stop stop-color="#F7AB42" offset="0%"></stop>
            <stop stop-color="#FBA093" offset="100%"></stop>
        </linearGradient>
    </defs>
    <g id="Goody_Registration1-1-Copy" stroke="none" stroke-width="1" fill="none" fill-rule="evenodd">
        <g id="Кнопка_войти" transform="translate(1184.000000, 42.000000)">
            <g id="Rectangle-6-Copy-7">
                <use fill="black" fill-opacity="1" filter="url(#filter-2)" xlink:href="#path-1"></use>
                <use fill="#FFFFFF" fill-rule="evenodd" xlink:href="#path-1"></use>
            </g>
            <text id="Войти" font-family="OpenSans-SemiBold, Open Sans" font-size="14" font-weight="500" line-spacing="56" fill="#F06E55">
                <tspan x="47" y="15">Войти</tspan>
            </text>
        </g>
        <path d="M1439,784.119674 L1001.95083,784.119674 C970.362206,805.289023 943.29826,783.807088 920.758996,719.673869 C886.9501,623.474041 893.841871,625.528508 884.742023,543.248512 C877.766177,480.173551 862.969131,453.493473 838.288837,435.96381 C771.152126,388.278644 740.019205,403.379394 673.054409,373.116362 C581.056222,331.540128 447.54217,178.685367 460.934306,39.1615347 C469.862397,-53.8543533 611.131636,18.8272119 884.742023,257.20623 C1010.05864,319.59956 1105.35062,369.273666 1170.61797,406.228546 C1268.51898,461.660867 1291.16576,486.652441 1340.63482,543.248512 C1390.10388,599.844584 1421.61185,684.5749 1421.61185,692.988315 C1421.61185,698.597259 1427.4079,721.077152 1439,760.427996 L1439,784.119674 Z" id="Path-10" fill="#D8D8D8" opacity="0.358582428"></path>
        <path d="M1443,768 C1411.52739,767.721792 1387.35642,767.721792 1370.48709,768 C1329.01568,768.683945 1289.0638,768 1230.09052,750.611724 C1126.08229,719.944888 1055.06475,665.759776 1004.61285,617.614822 C873.858951,492.839738 935.264504,352.319325 754.421676,239.515454 C726.495892,222.096258 689.071379,217.813365 649.452018,203.870464 C620.386784,193.641786 590.12049,179.638262 561.435907,160.111295 C538.932023,144.791826 517.40166,126.072758 498.188523,103.109753 C473.299597,73.3632041 451.57009,38.9932865 433,0 L1443,0" id="Path-9" fill="url(#linearGradient-3)"></path>
    </g>
</svg>

<svg width="1440" height="768" xmlns="http://www.w3.org/2000/svg" xmlns:xlink="http://www.w3.org/1999/xlink"><defs><rect id="b" y="8" width="137" height="40" rx="20"/><filter x="-1.5%" y="-2.5%" width="102.9%" height="110%" filterUnits="objectBoundingBox" id="a"><feOffset dy="1" in="SourceAlpha" result="shadowOffsetOuter1"/><feGaussianBlur stdDeviation=".5" in="shadowOffsetOuter1" result="shadowBlurOuter1"/><feColorMatrix values="0 0 0 0 0.855096726 0 0 0 0 0.226643735 0 0 0 0 0.158964182 0 0 0 1 0" in="shadowBlurOuter1"/></filter><linearGradient x1=".3866%" y1="50.3866%" x2="99.6134%" y2="50.3866%" id="c"><stop stop-color="#F7AB42" offset="0%"/><stop stop-color="#FBA093" offset="100%"/></linearGradient></defs><g fill="none" fill-rule="evenodd"><g transform="translate(1184 42)"><use fill="#000" filter="url(#a)" xlink:href="#b"/><use fill="#FFF" xlink:href="#b"/></g><text font-family="OpenSans-SemiBold, Open Sans" font-size="14" font-weight="500" fill="#F06E55" transform="translate(1184 42)"><tspan x="47" y="15">Войти</tspan></text><path d="M1439 784.1197h-437.0492c-31.5886 21.1693-58.6525-.3126-81.1918-64.4458-33.8089-96.1999-26.9171-94.1454-36.017-176.4254-6.9758-63.075-21.7729-89.755-46.4532-107.2847-67.1367-47.6852-98.2696-32.5844-165.2344-62.8474-91.9982-41.5763-225.5122-194.431-212.12-333.9549 8.928-93.0159 150.1972-20.3343 423.8076 218.0447 125.3166 62.3934 220.6086 112.0675 285.876 149.0223 97.901 55.4324 120.5478 80.424 170.0168 137.02 49.469 56.596 80.977 141.3264 80.977 149.7398 0 5.609 5.7961 28.0889 17.3882 67.4397v23.6917z" fill="#D8D8D8" opacity=".3586"/><path d="M1443 768c-31.4726-.2782-55.6436-.2782-72.513 0-41.4713.684-81.4232 0-140.3965-17.3883-104.0082-30.6668-175.0258-84.852-225.4777-132.9969-130.7538-124.775-69.3483-265.2955-250.1911-378.0993-27.9258-17.4192-65.3503-21.7021-104.9697-35.645-29.0652-10.2287-59.3315-24.2322-88.016-43.7592-22.504-15.3195-44.0343-34.0385-63.2475-57.0015C473.2996 73.3632 451.5701 38.9933 433 0h1010" fill="url(#c)"/></g></svg>
